app/img/logo-blue.svg

<svg width="156" height="62" viewBox="0 0 156 62" fill="none" xmlns="http://www.w3.org/2000/svg">
<path d="M10.3513 57.0912C10.3513 55.9798 9.9699 55.0427 9.21807 54.2691C8.46624 53.4955 7.55097 53.1141 6.48316 53.1141C5.51341 53.1141 4.67441 53.4192 3.96617 54.0403C3.26882 54.6505 2.83298 55.3914 2.66953 56.274H1.63441V53.2776H0V60.9048H1.63441V57.7994H2.66953C2.83298 58.7256 3.26882 59.5101 3.96617 60.1312C4.66351 60.7523 5.50251 61.0683 6.48316 61.0683C7.55097 61.0683 8.46624 60.6869 9.21807 59.9133C9.9699 59.1506 10.3513 58.2026 10.3513 57.0912ZM8.71685 57.0912C8.71685 57.8103 8.49893 58.4096 8.06309 58.8781C7.61635 59.3576 7.09334 59.5973 6.48316 59.5973C5.87298 59.5973 5.34997 59.3576 4.91412 58.8781C4.46738 58.4096 4.24946 57.8103 4.24946 57.0912C4.24946 56.3721 4.46738 55.7728 4.91412 55.2933C5.34997 54.8248 5.87298 54.5851 6.48316 54.5851C7.09334 54.5851 7.61635 54.8248 8.06309 55.2933C8.49893 55.7728 8.71685 56.3721 8.71685 57.0912Z" fill="#46466E"/>
<path d="M12.9603 53.2781V60.9053H14.5947V58.3993H16.1747C16.9592 58.3993 17.6129 58.1486 18.1251 57.6583C18.6372 57.168 18.8987 56.5578 18.8987 55.8387C18.8987 55.1086 18.6372 54.5094 18.1251 54.0081C17.602 53.5178 16.9592 53.2781 16.1747 53.2781H12.9603ZM16.1202 54.7491C16.4471 54.7491 16.7195 54.858 16.9374 55.0651C17.1553 55.2721 17.2643 55.5336 17.2643 55.8387C17.2643 56.1438 17.1553 56.4053 16.9374 56.6123C16.7195 56.8193 16.4471 56.9283 16.1202 56.9283H14.5947V54.7491H16.1202Z" fill="#46466E"/>
<path d="M28.2618 60.9053V53.2781H26.8453L23.0862 58.1269V53.2781H21.4518V60.9053H22.8683L26.6274 56.0566V60.9053H28.2618Z" fill="#46466E"/>
<path d="M30.3246 59.4344V62.4853H31.959V60.9053H36.5353V62.4853H38.1698V59.4344H37.2436V53.2781H31.959V55.6208C31.959 56.1329 31.9154 56.6123 31.8282 57.059C31.7411 57.5167 31.643 57.8762 31.5449 58.1486C31.436 58.4101 31.3161 58.6499 31.1745 58.8787C31.0328 59.0966 30.9457 59.2382 30.8912 59.3036C30.8258 59.3581 30.7931 59.4126 30.7604 59.4344H30.3246ZM33.5934 55.6208V54.7491H35.6092V59.4344H32.3948L32.5256 59.3036C32.6019 59.2165 32.6999 59.0748 32.8198 58.8678C32.9396 58.6608 33.0486 58.421 33.1685 58.1486C33.2883 57.8762 33.3864 57.5058 33.4627 57.059C33.5498 56.6123 33.5934 56.1329 33.5934 55.6208Z" fill="#46466E"/>
<path d="M47.3114 60.9053V53.2781H45.8949L42.1358 58.1269V53.2781H40.5013V60.9053H41.9178L45.677 56.0566V60.9053H47.3114Z" fill="#46466E"/>
<path d="M51.8817 53.2781H50.2473V55.6208C50.2473 56.536 50.487 57.2443 50.9665 57.7455C51.4568 58.2576 52.1214 58.5082 52.9713 58.5082C53.7014 58.5082 54.3007 58.3666 54.7692 58.0724V60.9053H56.4036V53.2781H54.7692V56.4924L54.5839 56.6341C54.4641 56.7213 54.2789 56.8084 54.0282 56.9065C53.7776 56.9937 53.5161 57.0372 53.2437 57.0372C52.8079 57.0372 52.4701 56.9174 52.2304 56.6777C52.0016 56.4271 51.8817 56.0784 51.8817 55.6208V53.2781Z" fill="#46466E"/>
<path d="M65.9856 53.2781H64.3512V56.329H61.0824V53.2781H59.448V60.9053H61.0824V57.8H64.3512V60.9053H65.9856V53.2781Z" fill="#46466E"/>
<path d="M72.9549 57.691H71.1026L72.0288 55.1849L72.9549 57.691ZM73.4997 59.1075L74.1535 60.9053H75.8969L72.9004 53.2781H71.1571L68.1606 60.9053H69.904L70.5578 59.1075H73.4997Z" fill="#46466E"/>
<path d="M83.0222 53.2781H81.3878V60.9053H83.0222V58.7261L84.0029 57.6365L86.2366 60.9053H88.1434L85.0925 56.438L87.9255 53.2781H86.0186L83.0222 56.6014V53.2781Z" fill="#46466E"/>
<path d="M91.4615 57.0912C91.4615 56.3939 91.7012 55.7946 92.1806 55.3151C92.6491 54.8248 93.2266 54.5851 93.9131 54.5851C94.5995 54.5851 95.177 54.8248 95.6456 55.3151C96.125 55.7946 96.3647 56.3939 96.3647 57.0912C96.3647 57.7994 96.125 58.3878 95.6456 58.8673C95.177 59.3576 94.5995 59.5973 93.9131 59.5973C93.2266 59.5973 92.6491 59.3576 92.1806 58.8673C91.7012 58.3878 91.4615 57.7994 91.4615 57.0912ZM89.7726 57.0912C89.7726 58.1808 90.1757 59.1288 90.9711 59.9024C91.7666 60.676 92.7472 61.0683 93.9131 61.0683C95.079 61.0683 96.0596 60.676 96.855 59.9024C97.6504 59.1288 98.0536 58.1808 98.0536 57.0912C98.0536 55.9907 97.6504 55.0536 96.855 54.28C96.0596 53.5064 95.079 53.1141 93.9131 53.1141C92.7472 53.1141 91.7666 53.5064 90.9711 54.28C90.1757 55.0536 89.7726 55.9907 89.7726 57.0912Z" fill="#46466E"/>
<path d="M104.748 56.6014L102.133 53.2781H100.662V60.9053H102.297V55.8387L104.748 58.9441L107.2 55.8169V60.9053H108.834V53.2781H107.385L104.748 56.6014Z" fill="#46466E"/>
<path d="M118.36 53.2781H111.876V60.9053H113.511V54.7491H116.725V60.9053H118.36V53.2781Z" fill="#46466E"/>
<path d="M125.33 57.691H123.477L124.404 55.1849L125.33 57.691ZM125.875 59.1075L126.528 60.9053H128.272L125.275 53.2781H123.532L120.536 60.9053H122.279L122.933 59.1075H125.875Z" fill="#46466E"/>
<path d="M136.983 53.2781H135.349V56.329H132.08V53.2781H130.446V60.9053H132.08V57.8H135.349V60.9053H136.983V53.2781Z" fill="#46466E"/>
<path d="M141.662 53.2781H140.027V60.9053H141.662V53.2781Z" fill="#46466E"/>
<path d="M150.373 53.2781H146.995C146.232 53.2781 145.611 53.5178 145.121 53.9972C144.63 54.4767 144.38 55.076 144.38 55.7842C144.38 56.0893 144.434 56.3726 144.521 56.645C144.62 56.9174 144.728 57.1244 144.859 57.277C144.979 57.4295 145.11 57.5712 145.273 57.7019C145.426 57.8327 145.535 57.9198 145.6 57.9525C145.655 57.9743 145.709 58.007 145.742 58.0179L144.107 60.9053H145.851L147.322 58.2358H148.738V60.9053H150.373V53.2781ZM146.014 55.7842C146.014 55.4791 146.112 55.2394 146.308 55.0433C146.505 54.8471 146.755 54.7491 147.049 54.7491H148.738V56.7648H147.049C146.755 56.7648 146.505 56.6668 146.308 56.4815C146.112 56.2963 146.014 56.0566 146.014 55.7842Z" fill="#46466E"/>
<path d="M4.98113 6.10352e-05H0V35.975H4.98113V22.6286C4.98113 20.3708 5.54273 18.5896 6.66593 17.3353C7.78912 16.0809 9.32741 15.4286 11.232 15.4286C12.8679 15.4286 14.2353 16.0307 15.3341 17.1847C16.4329 18.3638 16.9944 19.844 16.9944 21.6251V36.0001H22V21.6251C22 18.3137 21.0966 15.7046 19.2897 13.7478C17.4828 11.791 15.1143 10.8126 12.2331 10.8126C11.4029 10.8126 10.5727 10.913 9.76693 11.1387C8.93674 11.3645 8.27747 11.6154 7.74029 11.8913C7.20311 12.1673 6.69034 12.4684 6.22642 12.8196C5.76249 13.1708 5.44506 13.4217 5.29856 13.5722C5.15205 13.7227 5.02997 13.8231 4.98113 13.8983V6.10352e-05Z" fill="#F0145A"/>
<path d="M33.135 0H28V35.945H33.135V0Z" fill="#323264"/>
<path d="M63.4222 25.4178L63.6789 22.8503C63.6789 19.4098 62.5492 16.5342 60.2385 14.2235C57.9277 11.9127 55.0521 10.783 51.6116 10.783C48.1712 10.783 45.1929 12.0154 42.7281 14.4802C40.2633 16.945 39.0309 19.872 39.0309 23.3638C39.0309 26.9583 40.3146 30.0393 42.8308 32.6068C45.3469 35.1743 48.3766 36.458 51.8684 36.458C53.2035 36.458 54.4359 36.2526 55.6683 35.8932C56.9007 35.4824 57.9277 35.0716 58.6466 34.6608C59.4169 34.1986 60.1871 33.6851 60.8547 33.1203C61.5222 32.5554 61.9844 32.1446 62.1898 31.8879C62.3952 31.6311 62.5492 31.4771 62.6519 31.323L59.3142 27.9853L58.5439 28.9609C58.0304 29.5771 57.1575 30.1933 55.9251 30.8609C54.6413 31.5284 53.3062 31.8365 51.8684 31.8365C49.8657 31.8365 48.1712 31.2203 46.7334 29.9366C45.2956 28.6528 44.4226 27.1637 44.1659 25.4178H63.4222ZM51.6116 15.1478C53.5116 15.1478 55.0521 15.7126 56.3359 16.791C57.5683 17.9207 58.3385 19.3071 58.6466 21.053H44.3713C44.8334 19.3071 45.655 17.9207 46.9388 16.791C48.1712 15.7126 49.763 15.1478 51.6116 15.1478Z" fill="#323264"/>
<path d="M87.3712 34.4554C87.3712 36.7148 86.7037 38.5634 85.3172 40.0012C83.9821 41.3876 82.2876 42.1065 80.1822 42.1065C79.2579 42.1065 78.3336 41.9525 77.4607 41.6957C76.5877 41.439 75.9202 41.1309 75.3553 40.7714C74.7905 40.412 74.277 40.0525 73.7635 39.5904C73.3013 39.1282 72.9932 38.8201 72.8392 38.6661C72.6851 38.512 72.5824 38.358 72.4797 38.2553L69.142 41.593L69.5528 42.1065C69.8095 42.466 70.2717 42.9281 70.8879 43.4416C71.5041 43.9038 72.223 44.4173 73.0446 44.9308C73.8662 45.3929 74.8932 45.8037 76.1769 46.1632C77.4607 46.5226 78.7958 46.728 80.1822 46.728C83.674 46.728 86.5496 45.547 88.9631 43.1849C91.3252 40.7714 92.5062 37.8958 92.5062 34.404V11.2965H87.3712V13.864L86.4983 13.0938C85.9334 12.5803 85.0605 12.0668 83.8281 11.5533C82.5957 11.0398 81.2606 10.783 79.9255 10.783C76.7931 10.783 74.1229 11.9641 71.8122 14.3775C69.5014 16.791 68.3717 19.6666 68.3717 23.107C68.3717 26.5475 69.5014 29.4231 71.8122 31.8365C74.1229 34.25 76.7931 35.431 79.9255 35.431C80.7984 35.431 81.62 35.3283 82.493 35.1229C83.3146 34.8662 83.9821 34.6094 84.547 34.3527C85.1118 34.0959 85.6253 33.7878 86.0875 33.4284C86.5496 33.0689 86.9091 32.8122 87.0118 32.7095L87.3712 32.35V34.4554ZM73.5067 23.107C73.5067 20.9503 74.1743 19.1531 75.5607 17.6639C76.9472 16.1748 78.5904 15.4045 80.439 15.4045C82.2876 15.4045 83.9308 16.1748 85.3172 17.6639C86.6523 19.1531 87.3712 20.9503 87.3712 23.107C87.3712 25.2637 86.6523 27.061 85.3172 28.5501C83.9308 30.0393 82.2876 30.8095 80.439 30.8095C78.5904 30.8095 76.9472 30.0393 75.5607 28.5501C74.1743 27.061 73.5067 25.2637 73.5067 23.107Z" fill="#323264"/>
<path d="M119.309 35.9445V20.026C119.309 17.4072 118.333 15.1991 116.433 13.4532C114.533 11.656 112.068 10.783 109.039 10.783C107.858 10.783 106.677 10.9371 105.547 11.2452C104.417 11.6046 103.493 11.9641 102.825 12.3749C102.158 12.7857 101.49 13.2478 100.874 13.8127C100.258 14.3262 99.8985 14.6856 99.6931 14.891C99.539 15.0964 99.385 15.2505 99.2823 15.4045L102.62 18.7423L103.288 17.8693C103.698 17.3045 104.417 16.791 105.496 16.2261C106.574 15.6613 107.755 15.4045 109.039 15.4045C110.528 15.4045 111.76 15.8667 112.736 16.7396C113.712 17.6126 114.174 18.7423 114.174 20.026L105.188 21.5665C102.979 21.926 101.182 22.7989 99.9498 24.1854C98.6661 25.5718 97.9985 27.2664 97.9985 29.269C97.9985 31.169 98.8201 32.8122 100.463 34.25C102.158 35.7391 104.212 36.458 106.728 36.458C107.601 36.458 108.423 36.3553 109.244 36.0986C110.117 35.8932 110.785 35.6364 111.35 35.3797C111.914 35.1229 112.428 34.8148 112.89 34.4554C113.352 34.0959 113.66 33.8392 113.866 33.7365C114.02 33.5824 114.122 33.4284 114.174 33.377V35.9445H119.309ZM107.498 31.8365C106.163 31.8365 105.085 31.5284 104.315 30.9122C103.493 30.296 103.134 29.5771 103.134 28.7555C103.134 27.8826 103.39 27.1123 103.955 26.5475C104.52 25.9826 105.29 25.5718 106.215 25.4178L114.174 24.134V24.6475C114.174 26.9583 113.609 28.7042 112.428 29.9879C111.247 31.2203 109.604 31.8365 107.498 31.8365Z" fill="#323264"/>
<path d="M130.64 0H125.505V35.945H130.64V0Z" fill="#323264"/>
<path d="M153.989 14.1208L153.681 13.7613C153.475 13.5559 153.167 13.2992 152.705 12.9397C152.243 12.5803 151.729 12.2722 151.165 11.9127C150.6 11.6046 149.829 11.3479 148.905 11.0911C147.981 10.8857 147.005 10.783 146.03 10.783C143.513 10.783 141.459 11.5019 139.816 12.9397C138.122 14.4289 137.3 16.0721 137.3 17.972C137.3 19.3585 137.608 20.4882 138.224 21.5152C138.841 22.4908 139.611 23.2097 140.586 23.6205C141.511 24.0827 142.538 24.5448 143.616 24.9043C144.694 25.2637 145.67 25.5718 146.646 25.8286C147.57 26.1367 148.34 26.4961 148.957 26.9583C149.573 27.4204 149.881 28.0366 149.881 28.7555C149.881 29.6798 149.521 30.4501 148.854 31.0149C148.186 31.5284 147.159 31.8365 145.773 31.8365C144.643 31.8365 143.513 31.5284 142.435 31.0149C141.357 30.4501 140.689 29.9879 140.33 29.6285C140.022 29.269 139.765 28.9609 139.611 28.7555L136.273 32.0933L136.633 32.5554C136.889 32.8635 137.249 33.223 137.762 33.6338C138.327 34.0959 138.943 34.5067 139.611 34.9175C140.33 35.3283 141.254 35.6878 142.332 35.9959C143.411 36.304 144.592 36.458 145.773 36.458C148.494 36.458 150.754 35.6878 152.448 34.1986C154.143 32.7095 155.016 30.8609 155.016 28.7555C155.016 27.3691 154.708 26.188 154.092 25.2637C153.475 24.2881 152.705 23.5692 151.729 23.107C150.805 22.5935 149.778 22.1827 148.7 21.8233C147.621 21.4638 146.646 21.1044 145.67 20.899C144.746 20.6422 143.976 20.2314 143.359 19.7693C142.743 19.3071 142.435 18.6909 142.435 17.972C142.435 17.3045 142.743 16.6883 143.411 16.1748C144.027 15.6613 144.9 15.4045 146.03 15.4045C146.851 15.4045 147.673 15.6099 148.443 15.9694C149.265 16.3288 149.829 16.6369 150.086 16.8937C150.343 17.1504 150.548 17.3558 150.651 17.4585L153.989 14.1208Z" fill="#323264"/>
</svg>

<svg width="156" height="62" fill="none" xmlns="http://www.w3.org/2000/svg"><path d="M10.351 57.091c0-1.111-.381-2.048-1.133-2.822a3.675 3.675 0 00-2.735-1.155c-.97 0-1.809.305-2.517.926-.697.61-1.133 1.351-1.296 2.234H1.634v-2.996H0v7.627h1.634v-3.106H2.67a3.97 3.97 0 001.296 2.332c.698.621 1.537.937 2.517.937 1.068 0 1.983-.381 2.735-1.155.752-.762 1.133-1.71 1.133-2.822zm-1.634 0c0 .72-.218 1.319-.654 1.787-.447.48-.97.72-1.58.72-.61 0-1.133-.24-1.569-.72-.447-.468-.665-1.068-.665-1.787 0-.719.218-1.318.665-1.798.436-.468.959-.708 1.57-.708.61 0 1.132.24 1.58.708.435.48.653 1.08.653 1.798zm4.243-3.813v7.627h1.635V58.4h1.58c.784 0 1.438-.25 1.95-.74a2.432 2.432 0 00.774-1.82c0-.73-.262-1.33-.774-1.83-.523-.491-1.166-.73-1.95-.73H12.96zm3.16 1.471c.327 0 .6.109.817.316.218.207.327.469.327.774 0 .305-.109.566-.327.773-.218.207-.49.316-.817.316h-1.525V54.75h1.525zm12.142 6.156v-7.627h-1.417l-3.759 4.849v-4.849h-1.634v7.627h1.416l3.76-4.848v4.848h1.634zm2.063-1.471v3.051h1.634v-1.58h4.576v1.58h1.635v-3.05h-.926v-6.157h-5.285v2.343c0 .512-.044.991-.13 1.438a7.286 7.286 0 01-.284 1.09 5.09 5.09 0 01-.37.73c-.142.218-.23.36-.284.425-.065.054-.098.109-.13.13h-.436zm3.268-3.813v-.872h2.016v4.685h-3.214l.13-.13c.077-.087.175-.23.295-.436a7.47 7.47 0 00.349-.72c.12-.272.217-.642.294-1.089.087-.447.13-.926.13-1.438zm13.718 5.284v-7.627h-1.416l-3.76 4.849v-4.849h-1.634v7.627h1.417l3.759-4.848v4.848h1.634zm4.571-7.627h-1.635v2.343c0 .915.24 1.623.72 2.124.49.513 1.154.763 2.004.763.73 0 1.33-.141 1.798-.436v2.833h1.635v-7.627h-1.635v3.214l-.185.142c-.12.087-.305.174-.556.273a2.37 2.37 0 01-.784.13c-.436 0-.774-.12-1.014-.36-.228-.25-.348-.599-.348-1.056v-2.343zm14.104 0H64.35v3.051h-3.269v-3.05h-1.634v7.626h1.634V57.8h3.27v3.105h1.634v-7.627zm6.969 4.413h-1.852l.926-2.506.926 2.506zm.545 1.416l.653 1.798h1.744L72.9 53.278h-1.743l-2.996 7.627h1.743l.654-1.797H73.5zm9.522-5.829h-1.634v7.627h1.634v-2.179l.98-1.09 2.235 3.27h1.906l-3.05-4.468 2.832-3.16H86.02l-2.997 3.323v-3.323zm8.44 3.813c0-.697.24-1.296.719-1.776.468-.49 1.046-.73 1.732-.73.687 0 1.264.24 1.733.73.479.48.719 1.079.719 1.776 0 .708-.24 1.297-.72 1.776-.468.49-1.045.73-1.732.73-.686 0-1.264-.24-1.732-.73-.48-.48-.72-1.068-.72-1.776zm-1.69 0c0 1.09.404 2.038 1.2 2.811.795.774 1.775 1.166 2.941 1.166s2.147-.392 2.942-1.166c.795-.773 1.199-1.721 1.199-2.81 0-1.101-.404-2.038-1.199-2.812s-1.776-1.166-2.942-1.166c-1.166 0-2.146.392-2.942 1.166-.795.774-1.198 1.71-1.198 2.811zm14.976-.49l-2.615-3.323h-1.471v7.627h1.635V55.84l2.451 3.105 2.452-3.127v5.088h1.634v-7.627h-1.449l-2.637 3.323zm13.612-3.323h-6.484v7.627h1.635V54.75h3.214v6.156h1.635v-7.627zm6.97 4.413h-1.853l.927-2.506.926 2.506zm.545 1.416l.653 1.798h1.744l-2.997-7.627h-1.743l-2.996 7.627h1.743l.654-1.797h2.942zm11.108-5.829h-1.634v3.051h-3.269v-3.05h-1.634v7.626h1.634V57.8h3.269v3.105h1.634v-7.627zm4.679 0h-1.635v7.627h1.635v-7.627zm8.711 0h-3.378c-.763 0-1.384.24-1.874.72-.491.479-.741 1.078-.741 1.786 0 .305.054.589.141.861.099.272.207.48.338.632.12.152.251.294.414.425a2.2 2.2 0 00.327.25c.055.022.109.055.142.066l-1.635 2.887h1.744l1.471-2.67h1.416v2.67h1.635v-7.627zm-4.359 2.506a1.01 1.01 0 011.035-1.035h1.689v2.016h-1.689c-.294 0-.544-.098-.741-.284a.93.93 0 01-.294-.697z" fill="#46466E"/><path d="M4.981 0H0v35.975h4.981V22.629c0-2.258.562-4.04 1.685-5.294 1.123-1.254 2.661-1.906 4.566-1.906 1.636 0 3.003.602 4.102 1.756 1.099 1.179 1.66 2.659 1.66 4.44V36H22V21.625c0-3.311-.903-5.92-2.71-7.877-1.807-1.957-4.176-2.935-7.057-2.935-.83 0-1.66.1-2.466.326-.83.226-1.49.476-2.027.752-.537.276-1.05.577-1.514.929-.464.35-.78.602-.927.752-.147.15-.269.251-.318.326V0z" fill="#F0145A"/><path d="M33.135 0H28v35.945h5.135V0zm30.287 25.418l.257-2.568c0-3.44-1.13-6.316-3.44-8.627-2.311-2.31-5.187-3.44-8.627-3.44-3.44 0-6.42 1.232-8.884 3.697-2.465 2.465-3.697 5.392-3.697 8.884 0 3.594 1.284 6.675 3.8 9.243 2.516 2.567 5.546 3.851 9.037 3.851a13.32 13.32 0 003.8-.565c1.233-.41 2.26-.821 2.979-1.232.77-.462 1.54-.976 2.208-1.54.667-.566 1.13-.976 1.335-1.233.205-.257.36-.41.462-.565l-3.338-3.338-.77.976c-.514.616-1.386 1.232-2.619 1.9-1.284.667-2.619.976-4.057.976-2.002 0-3.697-.617-5.135-1.9-1.437-1.284-2.31-2.773-2.567-4.52h19.256zm-11.81-10.27c1.9 0 3.44.565 4.724 1.643 1.232 1.13 2.003 2.516 2.31 4.262H44.372c.462-1.746 1.284-3.132 2.568-4.262 1.232-1.078 2.824-1.643 4.673-1.643zm35.759 19.307c0 2.26-.667 4.108-2.054 5.546-1.335 1.387-3.03 2.105-5.135 2.105a9.702 9.702 0 01-2.721-.41c-.873-.257-1.54-.565-2.106-.925a11.605 11.605 0 01-1.592-1.18l-.924-.925c-.154-.154-.257-.308-.36-.41l-3.337 3.337.41.513c.257.36.72.822 1.336 1.336.616.462 1.335.975 2.157 1.489.821.462 1.848.873 3.132 1.232a14.8 14.8 0 004.005.565c3.492 0 6.368-1.181 8.781-3.543 2.362-2.414 3.543-5.29 3.543-8.781V11.296h-5.135v2.568l-.873-.77c-.565-.514-1.438-1.027-2.67-1.54a10.17 10.17 0 00-3.903-.771c-3.132 0-5.802 1.181-8.113 3.595-2.31 2.413-3.44 5.289-3.44 8.729 0 3.44 1.13 6.316 3.44 8.73 2.31 2.413 4.981 3.594 8.114 3.594.872 0 1.694-.103 2.567-.308a17.79 17.79 0 002.054-.77 7.667 7.667 0 001.54-.925c.463-.36.822-.616.925-.718l.36-.36v2.105zM73.507 23.107c0-2.157.667-3.954 2.054-5.443 1.386-1.49 3.03-2.26 4.878-2.26 1.849 0 3.492.77 4.878 2.26 1.335 1.49 2.054 3.286 2.054 5.443 0 2.157-.719 3.954-2.054 5.443-1.386 1.49-3.03 2.26-4.878 2.26-1.849 0-3.492-.77-4.878-2.26-1.387-1.489-2.054-3.286-2.054-5.443zm45.802 12.837V20.026c0-2.619-.976-4.827-2.876-6.573-1.9-1.797-4.365-2.67-7.394-2.67a13.31 13.31 0 00-3.492.462c-1.13.36-2.054.72-2.722 1.13-.667.41-1.335.873-1.951 1.438-.616.513-.975.873-1.18 1.078-.155.205-.309.36-.412.514l3.338 3.337.668-.873c.41-.564 1.129-1.078 2.208-1.643 1.078-.565 2.259-.821 3.543-.821 1.489 0 2.721.462 3.697 1.335s1.438 2.002 1.438 3.286l-8.986 1.54c-2.209.36-4.006 1.233-5.238 2.62-1.284 1.386-1.951 3.08-1.951 5.083 0 1.9.821 3.543 2.464 4.981 1.695 1.49 3.749 2.208 6.265 2.208.873 0 1.695-.103 2.516-.36a11.082 11.082 0 002.106-.718 7.68 7.68 0 001.54-.925c.462-.36.77-.616.976-.718.154-.155.256-.309.308-.36v2.567h5.135zm-11.811-4.108c-1.335 0-2.413-.308-3.183-.924-.822-.616-1.181-1.335-1.181-2.156 0-.873.256-1.644.821-2.209.565-.564 1.335-.975 2.26-1.13l7.959-1.283v.514c0 2.31-.565 4.056-1.746 5.34-1.181 1.232-2.824 1.849-4.93 1.849zM130.64 0h-5.135v35.945h5.135V0zm23.349 14.12l-.308-.359c-.206-.205-.514-.462-.976-.821-.462-.36-.976-.668-1.54-1.027-.565-.308-1.336-.565-2.26-.822a13.33 13.33 0 00-2.875-.308c-2.517 0-4.571.719-6.214 2.157-1.694 1.489-2.516 3.132-2.516 5.032 0 1.386.308 2.516.924 3.543.617.976 1.387 1.695 2.362 2.105.925.463 1.952.925 3.03 1.284 1.078.36 2.054.668 3.03.925.924.308 1.694.667 2.311 1.13.616.461.924 1.078.924 1.797 0 .924-.36 1.694-1.027 2.259-.668.513-1.695.822-3.081.822-1.13 0-2.26-.309-3.338-.822-1.078-.565-1.746-1.027-2.105-1.387a20.005 20.005 0 01-.719-.872l-3.338 3.337.36.462a7.77 7.77 0 001.129 1.079c.565.462 1.181.873 1.849 1.283.719.411 1.643.77 2.721 1.079a12.66 12.66 0 003.441.462c2.721 0 4.981-.77 6.675-2.26 1.695-1.489 2.568-3.337 2.568-5.442 0-1.387-.308-2.568-.924-3.492-.617-.976-1.387-1.695-2.363-2.157-.924-.514-1.951-.924-3.029-1.284-1.079-.36-2.054-.719-3.03-.924a6.948 6.948 0 01-2.311-1.13c-.616-.462-.924-1.078-.924-1.797 0-.668.308-1.284.976-1.797.616-.514 1.489-.77 2.619-.77.821 0 1.643.205 2.413.564.822.36 1.386.668 1.643.925l.565.565 3.338-3.338z" fill="#323264"/></svg>
